icons/desktop/16/keyboard-16.svg

<svg width="16" height="16" viewBox="0 0 16 16" fill="none" xmlns="http://www.w3.org/2000/svg">
<path d="M10.25 10C10.664 10 11 10.336 11 10.75C11 11.164 10.664 11.5 10.25 11.5H5.75C5.336 11.5 5 11.164 5 10.75C5 10.336 5.336 10 5.75 10H10.25Z" fill="black"/>
<path d="M4.125 7.5C4.40114 7.5 4.625 7.72386 4.625 8V8.5C4.625 8.77614 4.40114 9 4.125 9H3.625C3.34886 9 3.125 8.77614 3.125 8.5V8C3.125 7.72386 3.34886 7.5 3.625 7.5H4.125Z" fill="black"/>
<path d="M6.875 7.5C7.15114 7.5 7.375 7.72386 7.375 8V8.5C7.375 8.77614 7.15114 9 6.875 9H6.375C6.09886 9 5.875 8.77614 5.875 8.5V8C5.875 7.72386 6.09886 7.5 6.375 7.5H6.875Z" fill="black"/>
<path d="M9.625 7.5C9.90114 7.5 10.125 7.72386 10.125 8V8.5C10.125 8.77614 9.90114 9 9.625 9H9.125C8.84886 9 8.625 8.77614 8.625 8.5V8C8.625 7.72386 8.84886 7.5 9.125 7.5H9.625Z" fill="black"/>
<path d="M12.375 7.5C12.6511 7.5 12.875 7.72386 12.875 8V8.5C12.875 8.77614 12.6511 9 12.375 9H11.875C11.5989 9 11.375 8.77614 11.375 8.5V8C11.375 7.72386 11.5989 7.5 11.875 7.5H12.375Z" fill="black"/>
<path d="M4.125 5C4.40114 5 4.625 5.22386 4.625 5.5V6C4.625 6.27614 4.40114 6.5 4.125 6.5H3.625C3.34886 6.5 3.125 6.27614 3.125 6V5.5C3.125 5.22386 3.34886 5 3.625 5H4.125Z" fill="black"/>
<path d="M6.875 5C7.15114 5 7.375 5.22386 7.375 5.5V6C7.375 6.27614 7.15114 6.5 6.875 6.5H6.375C6.09886 6.5 5.875 6.27614 5.875 6V5.5C5.875 5.22386 6.09886 5 6.375 5H6.875Z" fill="black"/>
<path d="M9.625 5C9.90114 5 10.125 5.22386 10.125 5.5V6C10.125 6.27614 9.90114 6.5 9.625 6.5H9.125C8.84886 6.5 8.625 6.27614 8.625 6V5.5C8.625 5.22386 8.84886 5 9.125 5H9.625Z" fill="black"/>
<path d="M12.375 5C12.6511 5 12.875 5.22386 12.875 5.5V6C12.875 6.27614 12.6511 6.5 12.375 6.5H11.875C11.5989 6.5 11.375 6.27614 11.375 6V5.5C11.375 5.22386 11.5989 5 11.875 5H12.375Z" fill="black"/>
<path fill-rule="evenodd" clip-rule="evenodd" d="M8 2.25C10.0011 2.25 11.8584 2.36265 13.5459 2.53809C14.9513 2.68465 16 3.87588 16 5.27539V11.2246C16 12.6397 14.9217 13.8196 13.5225 13.9648C11.5163 14.1728 9.66317 14.25 8 14.25C5.99888 14.25 4.14156 14.1374 2.4541 13.9619C1.04865 13.8153 0 12.6241 0 11.2246V5.27539C0 3.86027 1.07827 2.68044 2.47754 2.53516C4.48373 2.32723 6.33683 2.25 8 2.25ZM8 3.75C6.38317 3.75 4.58164 3.82429 2.63184 4.02637L2.63281 4.02734C1.99009 4.09407 1.5 4.63652 1.5 5.27539V11.2246C1.5 11.8689 1.9811 12.404 2.60938 12.4697C4.24992 12.6403 6.05512 12.75 8 12.75C9.6167 12.75 11.4176 12.6747 13.3672 12.4727C14.0099 12.4059 14.5 11.8635 14.5 11.2246V5.27539C14.5 4.63109 14.0189 4.09597 13.3906 4.03027C11.7501 3.85971 9.94487 3.75 8 3.75Z" fill="black"/>
</svg>

<!-- This Source Code Form is subject to the terms of the Mozilla Public
   - License, v. 2.0. If a copy of the MPL was not distributed with this
   - file, You can obtain one at http://mozilla.org/MPL/2.0/. -->
<svg xmlns="http://www.w3.org/2000/svg" width="16" height="16" fill="context-fill" fill-opacity="context-fill-opacity" viewBox="0 0 16 16">
    <path d="M10.25 10a.75.75 0 0 1 0 1.5h-4.5a.75.75 0 0 1 0-1.5zM4.125 7.5a.5.5 0 0 1 .5.5v.5a.5.5 0 0 1-.5.5h-.5a.5.5 0 0 1-.5-.5V8a.5.5 0 0 1 .5-.5zm2.75 0a.5.5 0 0 1 .5.5v.5a.5.5 0 0 1-.5.5h-.5a.5.5 0 0 1-.5-.5V8a.5.5 0 0 1 .5-.5zm2.75 0a.5.5 0 0 1 .5.5v.5a.5.5 0 0 1-.5.5h-.5a.5.5 0 0 1-.5-.5V8a.5.5 0 0 1 .5-.5zm2.75 0a.5.5 0 0 1 .5.5v.5a.5.5 0 0 1-.5.5h-.5a.5.5 0 0 1-.5-.5V8a.5.5 0 0 1 .5-.5zM4.125 5a.5.5 0 0 1 .5.5V6a.5.5 0 0 1-.5.5h-.5a.5.5 0 0 1-.5-.5v-.5a.5.5 0 0 1 .5-.5zm2.75 0a.5.5 0 0 1 .5.5V6a.5.5 0 0 1-.5.5h-.5a.5.5 0 0 1-.5-.5v-.5a.5.5 0 0 1 .5-.5zm2.75 0a.5.5 0 0 1 .5.5V6a.5.5 0 0 1-.5.5h-.5a.5.5 0 0 1-.5-.5v-.5a.5.5 0 0 1 .5-.5zm2.75 0a.5.5 0 0 1 .5.5V6a.5.5 0 0 1-.5.5h-.5a.5.5 0 0 1-.5-.5v-.5a.5.5 0 0 1 .5-.5z" />
    <path fill-rule="evenodd" d="M8 2.25c2.001 0 3.858.113 5.546.288A2.746 2.746 0 0 1 16 5.275v5.95a2.76 2.76 0 0 1-2.477 2.74 53.6 53.6 0 0 1-11.069-.003A2.746 2.746 0 0 1 0 11.225v-5.95a2.76 2.76 0 0 1 2.478-2.74A54 54 0 0 1 8 2.25m0 1.5c-1.617 0-3.418.074-5.368.276v.001A1.26 1.26 0 0 0 1.5 5.275v5.95c0 .644.481 1.179 1.11 1.245a52 52 0 0 0 10.757.003 1.26 1.26 0 0 0 1.133-1.248v-5.95c0-.644-.481-1.179-1.11-1.245-1.64-.17-3.445-.28-5.39-.28" clip-rule="evenodd" />
</svg>
